X: 1
T:Bonaparte's Retreat
M:2/4
L:1/16
S:Pog Band Circassian Circle Set
R:polka
K:D Mix
DE|:"D"v[F2A8]F2 FEFG|A2F2 E2D2|"A"v[E2A8]E2 EDEF|G2F2 E2D2|"D"
v[F2A8]F2 FEFG|A2F2 E2D2|"A"v[E2A8]FG F2E2|1"D"v[D4A8] D2E2:|2"D"v[D4A4]
 A2B2|
|:"D7"v[D8c4]B4|"etc"v[D8A4] A2B2|c2d2 c2B2|A4 A2B2|
c4 B4|A4 A2dd|d2dd d2AB|1c2B2 A2B2:|2c2B2 A2||
